X:291
L:1/8
M:3/4
K:F
 (f' e'd') |:"F" d'c' af c2 | dc cA F2 |"C7" CE Gc eg |"F" fa c'f' e'd' | d'c' af c2 | 
"C7" dc BG E2 | CE Gc eg |1"F" f2 z (f' e'd') :|2"F" f2 z f ed |:"C7" d2 c!>!b cb |"F" ac' fa gf | 
"C7" dc eg b2 |"F" a2 cf ac' |"C7" d2 cb cb |"F" ac' fa gf |"C7" eg cb ag |1"F" f2 z f ed :|2 
"F" f2 z2 z2 |]

